X: 23
T:Danza de Tenorio
M:2/4
L:1/8
Q:200
C:Trad
S:Rep. X.L.Foxo
K:D
A>B AG | F2 D2 | G>A GF | G2E2 | A>B AG | A2 EF |
GE CE | D4 :||: (3DEF DF | {c}F2 E2 | {c}(3EFG  EG |
{c}G2 F2 | A>{B}A BA | F2 EF | GE CE | D4 :||

